Origami/48x48/apps/feedindicator.svg

<svg width="48" height="48" version="1.1" viewBox="0 0 48 48" xmlns="http://www.w3.org/2000/svg">
 <circle cx="24" cy="25" r="20" style="opacity:.2"/>
 <path d="m44 24c0 11.045695-8.954305 20-20 20s-20-8.954305-20-20 8.954305-20 20-20c0.224279 0 0.63709 1.6608886 0.859587 1.6682145 5.006491 0.1648428 7.274607 2.927311 10.695281 6.1177335 3.784163 3.529444 6.812976 6.047637 6.96925 11.592694 0.005374 0.190681 1.475882 0.429378 1.475882 0.621358z" style="fill:#8e8e8e"/>
 <path d="m44 24h-20v-20c11.045695 0 20 8.954305 20 20z" style="fill:#ff9044"/>
 <path d="M 24 4 A 20 20 0 0 0 4 24 A 20 20 0 0 0 4.0215 24.582 A 20 20 0 0 1 24 5 A 20 20 0 0 1 43.979 24.418 A 20 20 0 0 0 44 24 A 20 20 0 0 0 24 4 z" style="fill:#ffffff;opacity:.2"/>
 <path d="m24 11a14 14 0 0 0 -14 14 14 14 0 0 0 14 14 14 14 0 0 0 14 -14 14 14 0 0 0 -14 -14zm0 2a12 12 0 0 1 12 12 12 12 0 0 1 -12 12 12 12 0 0 1 -12 -12 12 12 0 0 1 12 -12z" style="opacity:.2"/>
 <path d="m24 10a14 14 0 0 0 -14 14 14 14 0 0 0 14 14 14 14 0 0 0 14 -14 14 14 0 0 0 -14 -14zm0 2a12 12 0 0 1 12 12 12 12 0 0 1 -12 12 12 12 0 0 1 -12 -12 12 12 0 0 1 12 -12z" style="fill:#ffffff"/>
 <circle cx="24" cy="25" r="8" style="opacity:.2"/>
 <circle cx="24" cy="24" r="8" style="fill:#ffffff"/>
 <circle cx="24" cy="24" r="6" style="fill:#3f3f3f"/>
</svg>

<svg xmlns="http://www.w3.org/2000/svg" width="48" height="48" version="1.1" viewBox="0 0 48 48">
 <circle style="opacity:0.2" cx="24" cy="25" r="20"/>
 <path style="fill:#8e8e8e" d="M 44,24 C 44,35.045695 35.045695,44 24,44 12.954305,44 4,35.045695 4,24 4,12.954305 12.954305,4 24,4 c 0.224279,0 0.63709,1.6608886 0.859587,1.6682145 5.006491,0.1648428 7.274607,2.927311 10.695281,6.1177335 3.784163,3.529444 6.812976,6.047637 6.96925,11.592694 C 42.529492,23.569323 44,23.80802 44,24 Z"/>
 <path style="fill:#ff9044" d="m 44,24 c 0,0 -8.954305,0 -20,0 L 24,4 c 11.045695,0 20,8.954305 20,20 z"/>
 <path style="opacity:0.2;fill:#ffffff" d="M 24 4 A 20 20 0 0 0 4 24 A 20 20 0 0 0 4.0215 24.582 A 20 20 0 0 1 24 5 A 20 20 0 0 1 43.979 24.418 A 20 20 0 0 0 44 24 A 20 20 0 0 0 24 4 z"/>
 <path d="M 24,11 A 14,14 0 0 0 10,25 14,14 0 0 0 24,39 14,14 0 0 0 38,25 14,14 0 0 0 24,11 Z m 0,2 A 12,12 0 0 1 36,25 12,12 0 0 1 24,37 12,12 0 0 1 12,25 12,12 0 0 1 24,13 Z" style="opacity:0.2"/>
 <path style="fill:#ffffff" d="M 24 10 A 14 14 0 0 0 10 24 A 14 14 0 0 0 24 38 A 14 14 0 0 0 38 24 A 14 14 0 0 0 24 10 z M 24 12 A 12 12 0 0 1 36 24 A 12 12 0 0 1 24 36 A 12 12 0 0 1 12 24 A 12 12 0 0 1 24 12 z"/>
 <circle style="opacity:0.2" cx="24" cy="25" r="8"/>
 <circle cx="24" cy="24" r="8" style="fill:#ffffff"/>
 <circle style="fill:#3f3f3f" cx="24" cy="24" r="6"/>
</svg>
